X:20
%%staffscale 1.0
T: I cannot eat but little meat
M: C
L: 1/4
K: C
V:1 clef-treble
V:2 clef-bass octave=-1
V:1
G/[CEG] [CEG]|[CFA][CG] [CFA][DFB]|[CEc]2 C2|[B,F][CE] [CF][B,DG]|
w:I can-not eat but lit-tle meat, My sto-mach is not
V:2
z/CC|FE FD|A,2 E2|DC/B,/ A,G,|
V:1
[CE]>c [EGc][EGc]|!<(![EAc][EAc] [DAd][Ad]|[^GBe]2 !<)! !>(![=Ge=g]2|[Bdf][Gcg] [Acf][GBd]!>)!|[Ec]2||
w:good; But sure I think that I can drink With him that wears a hood.
V:2
C2 CB,|A,G, F,F|E2 C2|DE FG|c2|| 

